X:586
T:Gladstone
R:reel
C:James Scott Skinner (1843-1927), Scotland
D:Altan: Island Angel
Z:id:hn-reel-586
M:C|
K:A
ed |: cAdB efga | ABcA BE~E2 | cAdB efga |1 edcB A2ed :|2 edcB Aefg ||
afba geag | fdaf eAce | dBed cAdc | ~B3c defg |
aA~A2 cAce | aAgA fAec | defd ceaf | ecBc A ||
P:variations
fed |: cAdB efga | ABcA BGE2 | cAdB efga |1 ecdB Afed :|2 ecdB Aefg ||
afba geag | fdgf eAce | dBed cAdc | BABc defg |
aA~A2 cAce | aAgA fAec | defd ceaf | ecdB A2 ||

